chrome/urlbar/permissions/screen-blocked.svg

<svg xmlns="http://www.w3.org/2000/svg" width="16" height="16" viewBox="0 0 16 16">
   <path
   style="fill:context-fill;fill-opacity:context-fill-opacity"
   d="M 0.4765625 0 A 0.5 0.5 0 0 0 0.14648438 0.14648438 A 0.5 0.5 0 0 0 0.14648438 0.85351562 L 1.3964844 2.1035156 C 0.58901826 2.3607199 0 3.1072895 0 4 L 0 12 C 0 13.1046 0.89543 14 2 14 L 13.292969 14 L 15.146484 15.853516 A 0.5 0.5 0 0 0 15.853516 15.853516 A 0.5 0.5 0 0 0 15.853516 15.146484 L 0.85351562 0.14648438 A 0.5 0.5 0 0 0 0.4765625 0 z M 4.1210938 2 L 5.1210938 3 L 14 3 C 14.5523 3 15 3.44772 15 4 L 15 12 C 15 12.244796 14.90189 12.460943 14.755859 12.634766 L 15.46875 13.347656 C 15.795448 12.991676 16 12.521276 16 12 L 16 4 C 16 2.89543 15.1046 2 14 2 L 4.1210938 2 z M 2 3 L 2.2929688 3 L 5.5429688 6.25 L 5.1464844 6.6464844 C 4.9512144 6.8417444 4.9512144 7.1582556 5.1464844 7.3535156 C 5.3417444 7.5487856 5.6582556 7.5487856 5.8535156 7.3535156 L 6.25 6.9570312 L 7.5 8.2070312 L 7.5 11.5 C 7.5 11.7761 7.72386 12 8 12 C 8.2761 12 8.5 11.7761 8.5 11.5 L 8.5 9.2070312 L 12.292969 13 L 2 13 C 1.44772 13 1 12.5523 1 12 L 1 4 C 1 3.44772 1.44772 3 2 3 z M 8 4 C 7.8720325 4 7.7441144 4.0488494 7.6464844 4.1464844 L 6.9570312 4.8359375 L 8.5 6.3789062 L 8.5 5.7070312 L 10.146484 7.3535156 C 10.341784 7.5487856 10.658216 7.5487856 10.853516 7.3535156 C 11.048716 7.1582556 11.048716 6.8417444 10.853516 6.6464844 L 8.3535156 4.1464844 C 8.2558656 4.0488494 8.1279675 4 8 4 z " />
</svg>

<svg xmlns="http://www.w3.org/2000/svg" width="16" height="16">
  <path style="fill:context-fill;fill-opacity:context-fill-opacity" d="M.477 0a.5.5 0 0 0-.33.146.5.5 0 0 0 0 .708l1.25 1.25A1.993 1.993 0 0 0 0 4v8a2 2 0 0 0 2 2h11.293l1.853 1.854a.5.5 0 0 0 .708 0 .5.5 0 0 0 0-.708l-15-15A.5.5 0 0 0 .477 0zM4.12 2l1 1H14a1 1 0 0 1 1 1v8c0 .245-.098.46-.244.635l.713.713c.326-.356.531-.827.531-1.348V4a2 2 0 0 0-2-2H4.121zM2 3h.293l3.25 3.25-.397.396a.5.5 0 1 0 .708.708l.396-.397 1.25 1.25V11.5a.5.5 0 0 0 1 0V9.207L12.293 13H2a1 1 0 0 1-1-1V4a1 1 0 0 1 1-1zm6 1a.498.498 0 0 0-.354.146l-.689.69L8.5 6.379v-.672l1.646 1.647a.5.5 0 1 0 .708-.708l-2.5-2.5A.498.498 0 0 0 8 4z"/>
</svg>
